launcher/android/assets/skins/day/svg/mapSolved1.svg

<svg enable-background="new 0 0 128.00 188.50" height="188.5" viewBox="0 0 128 188.5" width="128" xmlns="http://www.w3.org/2000/svg" xmlns:xlink="http://www.w3.org/1999/xlink"><linearGradient id="a" gradientTransform="matrix(-.966395140898 .257061143792 -.257061143792 -.966395140898 2.065211685697 .614896855393)" gradientUnits="objectBoundingBox" x1=".992414" x2="1.98393" y1=".442438" y2=".442438"><stop offset=".00925926" stop-color="#fff"/><stop offset="1" stop-color="#fcfcff" stop-opacity="0"/></linearGradient><linearGradient id="b"><stop offset=".00925926" stop-color="#fff"/><stop offset="1" stop-color="#fff" stop-opacity="0"/></linearGradient><linearGradient id="c" gradientTransform="matrix(-.968599743862 .24862529274 -.24862529274 -.968599743862 2.063126231446 .620166437066)" gradientUnits="objectBoundingBox" x1=".992401" x2="1.9844" xlink:href="#b" y1=".440365" y2=".440365"/><linearGradient id="d" gradientTransform="matrix(-.940434384383 .339975247143 -.339975247143 -.940434384383 2.119009965461 .542379285576)" gradientUnits="objectBoundingBox" x1="1.01199" x2="2.01995" xlink:href="#b" y1=".456821" y2=".456821"/><g stroke-linejoin="round"><ellipse cx="59.5001" cy="166.75" fill="#407308" rx="19" ry="19.25" stroke="#000" stroke-width="5"/><path d="m33.0001 84.9998-17-7.5-9.0001-10.9998-4-10-.5-13 4-10.5 6-9.5 6.5-6.5 11-7.5 8.5-3.5 11-2 11.5-.5 12-1 11.5 1.5 7.5 3.5 10 5 9 6.5 6.5 7 7 12 1 11-1.5 14-4.5 7.5-7.5 8-9 10-12 8.5-12 10-6.5 11.5-3.5 8 .2718 3.533-.5843 3.155-2.875 1.5-10.8125-.188-4-3v-9l6.5-10.5 8.5-12.5 11.5-13 4.5-7 4-11.5v-10.5l-2.5-12-6-6-10-4.5-9-1-7.5.5-9 3-6 5.5v6.5l2 6.5 7.5 5 5 3 1.5 5-1 5.5-3 4-3.5 3.5-6.5 1.5z" fill="#407308" stroke="#000" stroke-width="5"/><g stroke-width=".2"><path d="m78.3334 8.99976 11.3333 7.66674 9.3333 7.3335 8.333 10.3333 3.667 9.3333 1.333 12.3334-2 12-3.333 5.6666 4.631 1.5463 9.369-12.5463 1.667-9.6666-.334-13-7.202-11.7871-4.464-5.2129-1.667-2.3334-4.667-3-6.6664-5-6.6666-2.99997-6-1.33338z" fill="url(#a)"/><path d="m35.1667 55.0833-2.9583-2.0417-2.375 5.7082 4 4.3335 3.9999 4.6667 1 5.3333-.3333 6-.5416 2.0415 4.4167-.75 3.6666-2.0833 2.8334-2.6667-.0834-3.5.3333-3.4165-1-2.8333-4.6667-3-3.4167-2.1667-2.9999-2.1667" fill="url(#c)"/><path d="m61.0001 150.333 3.6666 4.334 2.3333 4.666-.3334 6.667-1.3333 6.667-2.3333 5.666.6666 3 3.3599-.099 3.8334-2.25 3.0833-4.167 1.6667-4.917s.8089-3.712.3901-5.233c-.3647-1.325-1-5.334-1-5.334l-1.3334-4-3.3333-3-3-2z" fill="url(#d)"/></g></g></svg>

﻿<?xml version="1.0" encoding="utf-8"?>
<!DOCTYPE svg PUBLIC "-//W3C//DTD SVG 1.1//EN" "http://www.w3.org/Graphics/SVG/1.1/DTD/svg11.dtd">
<svg xmlns="http://www.w3.org/2000/svg" xmlns:xlink="http://www.w3.org/1999/xlink" version="1.1" baseProfile="full" width="128" height="188.5" viewBox="0 0 128.00 188.50" enable-background="new 0 0 128.00 188.50" xml:space="preserve">
	<g>
		<ellipse fill="#407308" fill-opacity="1" stroke-width="5" stroke-linejoin="round" stroke="#000000" stroke-opacity="1" cx="59.5001" cy="166.75" rx="19" ry="19.25"/>
		<path fill="#407308" fill-opacity="1" stroke-width="5" stroke-linejoin="round" stroke="#000000" stroke-opacity="1" d="M 33.0001,84.9998L 16.0001,77.4998L 7,66.5L 3,56.5L 2.5,43.5L 6.5,33L 12.5,23.5L 19,17L 30,9.5L 38.5,6L 49.5,4L 61,3.5L 73,2.5L 84.5,4L 92,7.5L 102,12.5L 111,19L 117.5,26L 124.5,38L 125.5,49L 124,63L 119.5,70.5L 112,78.5L 103,88.5L 91,97L 79,107L 72.5,118.5L 69,126.5L 69.2718,130.033L 68.6875,133.188L 65.8125,134.688L 55,134.5L 51,131.5L 51,122.5L 57.5,112L 66,99.5L 77.5,86.5L 82,79.5L 86,68L 86,57.5L 83.5,45.5L 77.5,39.5L 67.5,35L 58.5,34L 51,34.5L 42,37.5L 36,43L 36,49.5L 38,56L 45.5,61L 50.5,64L 52,69L 51,74.5L 48,78.5L 44.5,82L 38,83.5L 33.0001,84.9998 Z "/>
		<linearGradient id="SVGID_Fill1_" gradientUnits="objectBoundingBox" x1="0.992414" y1="0.442438" x2="1.98393" y2="0.442438" gradientTransform="rotate(165.104248 0.992414 0.442438)">
			<stop offset="0.00925926" stop-color="#FFFFFF" stop-opacity="1"/>
			<stop offset="1" stop-color="#FCFCFF" stop-opacity="0"/>
		</linearGradient>
		<path fill="url(#SVGID_Fill1_)" stroke-width="0.2" stroke-linejoin="round" d="M 78.3334,8.99976L 89.6667,16.6665L 99,24L 107.333,34.3333L 111,43.6666L 112.333,56L 110.333,68L 107,73.6666L 111.631,75.2129L 121,62.6666L 122.667,53L 122.333,40L 115.131,28.2129L 110.667,23L 109,20.6666L 104.333,17.6666L 97.6666,12.6666L 91,9.66663L 85,8.33325L 78.3334,8.99976 Z "/>
		<linearGradient id="SVGID_Fill2_" gradientUnits="objectBoundingBox" x1="0.992401" y1="0.440365" x2="1.9844" y2="0.440365" gradientTransform="rotate(165.603821 0.992401 0.440365)">
			<stop offset="0.00925926" stop-color="#FFFFFF" stop-opacity="1"/>
			<stop offset="1" stop-color="#FFFFFF" stop-opacity="0"/>
		</linearGradient>
		<path fill="url(#SVGID_Fill2_)" stroke-width="0.2" stroke-linejoin="round" d="M 35.1667,55.0833L 32.2084,53.0416L 29.8334,58.7498L 33.8334,63.0833L 37.8333,67.75L 38.8333,73.0833L 38.5,79.0833L 37.9584,81.1248L 42.3751,80.3748L 46.0417,78.2915L 48.8751,75.6248L 48.7917,72.1248L 49.125,68.7083L 48.125,65.875L 43.4583,62.875L 40.0416,60.7083L 37.0417,58.5416"/>
		<linearGradient id="SVGID_Fill3_" gradientUnits="objectBoundingBox" x1="1.01199" y1="0.456821" x2="2.01995" y2="0.456821" gradientTransform="rotate(160.124634 1.011991 0.456821)">
			<stop offset="0.00925926" stop-color="#FFFFFF" stop-opacity="1"/>
			<stop offset="1" stop-color="#FFFFFF" stop-opacity="0"/>
		</linearGradient>
		<path fill="url(#SVGID_Fill3_)" stroke-width="0.2" stroke-linejoin="round" d="M 61.0001,150.333L 64.6667,154.667L 67,159.333L 66.6666,166L 65.3333,172.667L 63,178.333L 63.6666,181.333L 67.0265,181.234L 70.8599,178.984L 73.9432,174.817L 75.6099,169.9C 75.6099,169.9 76.4188,166.188 76,164.667C 75.6353,163.342 75,159.333 75,159.333L 73.6666,155.333L 70.3333,152.333L 67.3333,150.333L 61.0001,150.333 Z "/>
	</g>
</svg>
